exports/stratospheric-ozone-concentration-projections_v1_850x600.svg

<svg xmlns="http://www.w3.org/2000/svg" version="1.1" style="background-color:#fff;-webkit-font-smoothing:antialiased" width="850" height="600" font-family="'Helvetica Neue',Helvetica,Arial,sans-serif" font-size="18" text-rendering="optimizeLegibility"><g class="ChartTab"><g class="HeaderView"><g opacity=".8" transform="matrix(.27 0 0 .27 778 15)"><a xmlns:xlink="http://www.w3.org/1999/xlink" xlink:href="https://ourworldindata.org" target="_blank"><g><path fill="#1B2543" d="M0 0h211.2v130.1H0z"/><path fill="#E63912" d="M0 112.2h211.2v17.9H0z"/><g><path fill="none" d="M1.2 12.3h210.2v99.2H1.2z"/><path fill="#FFF" d="M37.8 32.2c0 12.7-7.7 19.4-17.1 19.4-9.7 0-16.6-7.5-16.6-18.7 0-11.7 7.3-19.3 17.1-19.3 10.1.1 16.6 7.7 16.6 18.6zm-28.6.6c0 7.9 4.3 14.9 11.8 14.9 7.5 0 11.8-6.9 11.8-15.3 0-7.3-3.8-14.9-11.8-14.9-7.9 0-11.8 7.3-11.8 15.3zM62.7 43.8c0 2.7.1 5.1.2 7.2h-4.3l-.3-4.3h-.1c-1.3 2.1-4 4.9-8.8 4.9-4.2 0-9.1-2.3-9.1-11.6V24.6h4.8v14.6c0 5 1.5 8.4 5.9 8.4 3.2 0 5.5-2.2 6.3-4.4.3-.7.4-1.6.4-2.5V24.6h4.8v19.2zM67.3 32.8c0-3.1-.1-5.8-.2-8.2h4.2l.2 5.2h.2c1.2-3.5 4.1-5.8 7.3-5.8.5 0 .9.1 1.4.2v4.5c-.5-.1-1-.2-1.6-.2-3.4 0-5.8 2.6-6.5 6.2-.1.7-.2 1.4-.2 2.2V51h-4.8V32.8zM95.4 51L86 14.2h5l4.4 18.6c1.1 4.6 2.1 9.2 2.7 12.7h.1c.6-3.7 1.8-8 3-12.8l4.9-18.5h5l4.5 18.7c1 4.4 2 8.7 2.6 12.6h.1c.8-4 1.8-8.1 3-12.7l4.9-18.5h4.9L120.6 51h-5L111 31.9c-1.1-4.7-1.9-8.3-2.4-12h-.1c-.7 3.7-1.5 7.3-2.8 12L100.4 51h-5zM154.9 37.6c0 9.8-6.8 14-13.2 14-7.2 0-12.7-5.2-12.7-13.6 0-8.8 5.8-14 13.1-14 7.7 0 12.8 5.5 12.8 13.6zm-21 .3c0 5.8 3.3 10.1 8 10.1 4.6 0 8-4.3 8-10.3 0-4.5-2.2-10.1-7.9-10.1s-8.1 5.2-8.1 10.3zM158.2 32.8c0-3.1-.1-5.8-.2-8.2h4.2l.2 5.2h.2c1.2-3.5 4.1-5.8 7.3-5.8.5 0 .9.1 1.4.2v4.5c-.5-.1-1-.2-1.6-.2-3.4 0-5.8 2.6-6.5 6.2-.1.7-.2 1.4-.2 2.2V51h-4.8V32.8zM173.5 12.3h4.8V51h-4.8V12.3zM206.5 12.3v31.9c0 2.3.1 5 .2 6.8h-4.3l-.2-4.6h-.2c-1.5 2.9-4.7 5.2-9 5.2-6.4 0-11.3-5.4-11.3-13.4-.1-8.8 5.4-14.2 11.9-14.2 4 0 6.8 1.9 8 4h.1V12.3h4.8zm-4.8 23.1c0-.6-.1-1.4-.2-2a7 7 0 00-6.9-5.6c-5 0-7.9 4.4-7.9 10.2 0 5.3 2.6 9.8 7.8 9.8 3.2 0 6.2-2.1 7.1-5.7.2-.7.2-1.3.2-2.1v-4.6zM42.8 64c.1 1.6-1.1 2.9-3.1 2.9-1.7 0-2.9-1.3-2.9-2.9 0-1.7 1.3-3 3-3 1.9 0 3 1.3 3 3zm-5.4 33.8V71.4h4.8v26.4h-4.8zM47.5 78.6c0-2.7-.1-5-.2-7.1h4.3l.3 4.4h.1c1.3-2.5 4.4-5 8.8-5 3.7 0 9.4 2.2 9.4 11.2v15.8h-4.8V82.6c0-4.3-1.6-7.8-6.1-7.8-3.2 0-5.6 2.2-6.5 4.9-.2.6-.3 1.4-.3 2.2v15.9h-4.8V78.6zM84 61.6c2.9-.4 6.3-.8 10.1-.8 6.8 0 11.7 1.6 14.9 4.6 3.3 3 5.2 7.3 5.2 13.2 0 6-1.9 10.9-5.3 14.3-3.4 3.4-9.1 5.3-16.3 5.3-3.4 0-6.2-.2-8.6-.4V61.6zm4.8 32.5c1.2.2 3 .3 4.8.3 10.2 0 15.7-5.7 15.7-15.6.1-8.7-4.9-14.2-14.9-14.2-2.5 0-4.3.2-5.6.5v29zM132.1 97.8l-.4-3.3h-.2a9.79 9.79 0 01-8.1 3.9c-5.4 0-8.1-3.8-8.1-7.6 0-6.4 5.7-9.9 15.9-9.8v-.5c0-2.2-.6-6.1-6-6.1-2.5 0-5 .8-6.9 2l-1.1-3.2c2.2-1.4 5.4-2.3 8.7-2.3 8.1 0 10.1 5.5 10.1 10.8v9.9c0 2.3.1 4.5.4 6.3h-4.3zm-.7-13.4c-5.3-.1-11.2.8-11.2 5.9 0 3.1 2.1 4.6 4.5 4.6 3.4 0 5.6-2.2 6.4-4.4.2-.5.3-1 .3-1.5v-4.6zM146.6 63.9v7.6h6.9v3.7h-6.9v14.2c0 3.3.9 5.1 3.6 5.1 1.3 0 2.2-.2 2.8-.3l.2 3.6c-.9.4-2.4.7-4.3.7-2.2 0-4-.7-5.2-2-1.4-1.4-1.9-3.8-1.9-6.9V75.1h-4.1v-3.7h4.1v-6.3l4.8-1.2zM171.4 97.8l-.4-3.3h-.2a9.79 9.79 0 01-8.1 3.9c-5.4 0-8.1-3.8-8.1-7.6 0-6.4 5.7-9.9 15.9-9.8v-.5c0-2.2-.6-6.1-6-6.1-2.5 0-5 .8-6.9 2l-1.1-3.2c2.2-1.4 5.4-2.3 8.7-2.3 8.1 0 10.1 5.5 10.1 10.8v9.9c0 2.3.1 4.5.4 6.3h-4.3zm-.7-13.4c-5.3-.1-11.2.8-11.2 5.9 0 3.1 2.1 4.6 4.5 4.6 3.4 0 5.6-2.2 6.4-4.4.2-.5.3-1 .3-1.5v-4.6z"/></g></g></a></g><a href="https://ourworldindata.org/grapher/stratospheric-ozone-concentration-projections" target="_blank"><text font-size="25.2" x="15" y="35.2" fill="#555"><tspan x="15" y="35.16">Stratospheric ozone concentration projections</tspan></text></a><text font-size="14.4" x="15" y="53.7" fill="#666"><tspan x="15" y="53.72">Stratospheric ozone concentrations with projections to 2100 based on chemistry-climate models. Ozone</tspan><tspan x="15" y="69.56">concentrations are measured relative to levels in 1960 (1960 = 0), and measured as the global average, and regional</tspan><tspan x="15" y="85.4">average. Figures represent the mean across a number of model runs; model projections have notable uncertainty</tspan><tspan x="15" y="101.24">around such average trends.</tspan></text></g><g class="LineChart"><defs><clipPath id="a"><path d="M42.56 0h830v866.8h-830z"/></clipPath></defs><g class="AxisBoxView"><g class="HorizontalAxis" fill="#666" text-anchor="middle" font-size="16.2"><text x="52.6" y="556.5">1960</text><text x="151.8" y="556.5">1980</text><text x="251.1" y="556.5">2000</text><text x="350.3" y="556.5">2020</text><text x="449.6" y="556.5">2040</text><text x="548.8" y="556.5">2060</text><text x="648.1" y="556.5">2080</text><text x="747.4" y="556.5">2100</text></g><g class="VerticalAxis" fill="#666" dominant-baseline="middle" text-anchor="end" font-size="16.2"><text x="47.56" y="535.3">-140</text><text x="47.56" y="489.5">-120</text><text x="47.56" y="443.7">-100</text><text x="47.56" y="397.9">-80</text><text x="47.56" y="352.1">-60</text><text x="47.56" y="306.3">-40</text><text x="47.56" y="260.5">-20</text><text x="47.56" y="214.7">0</text><text x="47.56" y="168.9">20</text><text x="47.56" y="123.1">40</text></g><g class="AxisGridLines"><path stroke="#ddd" stroke-dasharray="3,2" d="M52.56 535.3h694.79M52.56 489.5h694.79M52.56 443.7h694.79M52.56 397.9h694.79M52.56 352.1h694.79M52.56 306.3h694.79M52.56 260.5h694.79"/><path stroke="#ccc" d="M52.56 214.7h694.79"/><path stroke="#ddd" stroke-dasharray="3,2" d="M52.56 168.9h694.79M52.56 123.1h694.79"/></g></g><g clip-path="url(#a)"><g class="HeightedLegend clickable"><g class="legendMark"><text font-size="13.5" x="752.4" y="133.2" fill="#34983f"><tspan x="752.35" y="133.15">Arctic</tspan></text></g><g class="legendMark"><text font-size="13.5" x="752.4" y="206.7" fill="#ca2628"><tspan x="752.35" y="206.65">Global</tspan></text></g><g class="legendMark"><text font-size="13.5" x="752.4" y="231.4" fill="#3360a9"><tspan x="752.35" y="231.35">Antarctic</tspan></text></g></g><g class="Lines"><g class="key-Antarctic_0"><path stroke="#3360a9" stroke-linecap="round" d="M53 215l24 2 25 15 25 31 25 47 25 57 24 56 25 44 25 25 25 5 25-12 25-22 24-24 25-22 25-19 25-18 25-18 24-19 25-18 25-17 25-14 25-11 25-9 24-9 25-8 25-7 25-8 25-7 24-8" fill="none" stroke-width="1.5"/><g fill="#3360a9"><circle cx="53" cy="215" r="2"/><circle cx="77" cy="217" r="2"/><circle cx="102" cy="232" r="2"/><circle cx="127" cy="263" r="2"/><circle cx="152" cy="310" r="2"/><circle cx="177" cy="367" r="2"/><circle cx="201" cy="423" r="2"/><circle cx="226" cy="467" r="2"/><circle cx="251" cy="492" r="2"/><circle cx="276" cy="497" r="2"/><circle cx="301" cy="485" r="2"/><circle cx="326" cy="463" r="2"/><circle cx="350" cy="439" r="2"/><circle cx="375" cy="417" r="2"/><circle cx="400" cy="398" r="2"/><circle cx="425" cy="380" r="2"/><circle cx="450" cy="362" r="2"/><circle cx="474" cy="343" r="2"/><circle cx="499" cy="325" r="2"/><circle cx="524" cy="308" r="2"/><circle cx="549" cy="294" r="2"/><circle cx="574" cy="283" r="2"/><circle cx="599" cy="274" r="2"/><circle cx="623" cy="265" r="2"/><circle cx="648" cy="257" r="2"/><circle cx="673" cy="250" r="2"/><circle cx="698" cy="242" r="2"/><circle cx="723" cy="235" r="2"/><circle cx="747" cy="227" r="2"/></g></g><g class="key-Arctic_0"><path stroke="#34983f" stroke-linecap="round" d="M53 215l24-10 25 3 25 8 25 12 25 15 24 15 25 13 25 6h25l25-8 25-11 24-14 25-15 25-10 25-10 25-8 24-8 25-8 25-7 25-8 25-6 25-6 24-6 25-6 25-6 25-4 25-3 24-4" fill="none" stroke-width="1.5"/><g fill="#34983f"><circle cx="53" cy="215" r="2"/><circle cx="77" cy="205" r="2"/><circle cx="102" cy="208" r="2"/><circle cx="127" cy="216" r="2"/><circle cx="152" cy="228" r="2"/><circle cx="177" cy="243" r="2"/><circle cx="201" cy="258" r="2"/><circle cx="226" cy="271" r="2"/><circle cx="251" cy="277" r="2"/><circle cx="276" cy="277" r="2"/><circle cx="301" cy="269" r="2"/><circle cx="326" cy="258" r="2"/><circle cx="350" cy="244" r="2"/><circle cx="375" cy="229" r="2"/><circle cx="400" cy="219" r="2"/><circle cx="425" cy="209" r="2"/><circle cx="450" cy="201" r="2"/><circle cx="474" cy="193" r="2"/><circle cx="499" cy="185" r="2"/><circle cx="524" cy="178" r="2"/><circle cx="549" cy="170" r="2"/><circle cx="574" cy="164" r="2"/><circle cx="599" cy="158" r="2"/><circle cx="623" cy="152" r="2"/><circle cx="648" cy="146" r="2"/><circle cx="673" cy="140" r="2"/><circle cx="698" cy="136" r="2"/><circle cx="723" cy="133" r="2"/><circle cx="747" cy="129" r="2"/></g></g><g class="key-Global_0"><path stroke="#ca2628" stroke-linecap="round" d="M53 215l24-1 25 1 25 5 25 5 25 9 24 8 25 5 25 3 25-2 25-3 25-5 24-5 25-4 25-5 25-2 25-4 24-3 25-3 25-3 25-1 25-2h25l24-2 25-2h25l25-1h49" fill="none" stroke-width="1.5"/><g fill="#ca2628"><circle cx="53" cy="215" r="2"/><circle cx="77" cy="214" r="2"/><circle cx="102" cy="215" r="2"/><circle cx="127" cy="220" r="2"/><circle cx="152" cy="225" r="2"/><circle cx="177" cy="234" r="2"/><circle cx="201" cy="242" r="2"/><circle cx="226" cy="247" r="2"/><circle cx="251" cy="250" r="2"/><circle cx="276" cy="248" r="2"/><circle cx="301" cy="245" r="2"/><circle cx="326" cy="240" r="2"/><circle cx="350" cy="235" r="2"/><circle cx="375" cy="231" r="2"/><circle cx="400" cy="226" r="2"/><circle cx="425" cy="224" r="2"/><circle cx="450" cy="220" r="2"/><circle cx="474" cy="217" r="2"/><circle cx="499" cy="214" r="2"/><circle cx="524" cy="211" r="2"/><circle cx="549" cy="210" r="2"/><circle cx="574" cy="208" r="2"/><circle cx="599" cy="208" r="2"/><circle cx="623" cy="206" r="2"/><circle cx="648" cy="204" r="2"/><circle cx="673" cy="204" r="2"/><circle cx="698" cy="203" r="2"/><circle cx="723" cy="203" r="2"/><circle cx="747" cy="203" r="2"/></g></g></g></g></g><g class="SourcesFooter" fill="#777"><g class="clickable" fill="#777"><text font-size="12.6" x="15" y="581.6"><tspan x="15" y="581.58">Source: Hegglin et al. (2014). Twenty questions and answers about the ozone layer: 2014 update.</tspan></text></g><text font-size="12.6" x="775.4" y="581.6"><tspan x="775.4" y="581.58"><a class="cclogo" href="http://creativecommons.org/licenses/by-sa/4.0/deed.en_US" target="_blank" fill="#777">CC BY-SA</a></tspan></text></g></g></svg>

<svg xmlns="http://www.w3.org/2000/svg" version="1.1" style="font-family: 'Helvetica Neue', Helvetica, Arial, sans-serif; font-size: 18px; background-color: white; text-rendering: optimizeLegibility; -webkit-font-smoothing: antialiased;" width="850" height="600"><g class="ChartTab"><g class="HeaderView"><g opacity="0.8" transform="translate(778, 15) scale(0.27)"><a xmlns:xlink="http://www.w3.org/1999/xlink" xlink:href="https://ourworldindata.org" target="_blank"><g><rect x="0" y="0" fill="#1B2543" width="211.2" height="130.1"/><rect x="0" y="112.2" fill="#E63912" width="211.2" height="17.9"/><g><rect x="1.2" y="12.3" fill="none" width="210.2" height="99.2"/><path fill="#FFFFFF" d="M37.8,32.2c0,12.7-7.7,19.4-17.1,19.4c-9.7,0-16.6-7.5-16.6-18.7c0-11.7,7.3-19.3,17.1-19.3 C31.3,13.7,37.8,21.3,37.8,32.2z M9.2,32.8c0,7.9,4.3,14.9,11.8,14.9c7.5,0,11.8-6.9,11.8-15.3c0-7.3-3.8-14.9-11.8-14.9 C13.1,17.5,9.2,24.8,9.2,32.8z"/><path fill="#FFFFFF" d="M62.7,43.8c0,2.7,0.1,5.1,0.2,7.2h-4.3l-0.3-4.3h-0.1c-1.3,2.1-4,4.9-8.8,4.9c-4.2,0-9.1-2.3-9.1-11.6 V24.6h4.8v14.6c0,5,1.5,8.4,5.9,8.4c3.2,0,5.5-2.2,6.3-4.4c0.3-0.7,0.4-1.6,0.4-2.5V24.6h4.8V43.8z"/><path fill="#FFFFFF" d="M67.3,32.8c0-3.1-0.1-5.8-0.2-8.2h4.2l0.2,5.2h0.2c1.2-3.5,4.1-5.8,7.3-5.8c0.5,0,0.9,0.1,1.4,0.2v4.5 c-0.5-0.1-1-0.2-1.6-0.2c-3.4,0-5.8,2.6-6.5,6.2c-0.1,0.7-0.2,1.4-0.2,2.2V51h-4.8V32.8z"/><path fill="#FFFFFF" d="M95.4,51l-9.4-36.8h5l4.4,18.6c1.1,4.6,2.1,9.2,2.7,12.7h0.1c0.6-3.7,1.8-8,3-12.8l4.9-18.5h5l4.5,18.7 c1,4.4,2,8.7,2.6,12.6h0.1c0.8-4,1.8-8.1,3-12.7l4.9-18.5h4.9L120.6,51h-5L111,31.9c-1.1-4.7-1.9-8.3-2.4-12h-0.1 c-0.7,3.7-1.5,7.3-2.8,12L100.4,51H95.4z"/><path fill="#FFFFFF" d="M154.9,37.6c0,9.8-6.8,14-13.2,14c-7.2,0-12.7-5.2-12.7-13.6c0-8.8,5.8-14,13.1-14 C149.8,24,154.9,29.5,154.9,37.6z M133.9,37.9c0,5.8,3.3,10.1,8,10.1c4.6,0,8-4.3,8-10.3c0-4.5-2.2-10.1-7.9-10.1 C136.3,27.6,133.9,32.8,133.9,37.9z"/><path fill="#FFFFFF" d="M158.2,32.8c0-3.1-0.1-5.8-0.2-8.2h4.2l0.2,5.2h0.2c1.2-3.5,4.1-5.8,7.3-5.8c0.5,0,0.9,0.1,1.4,0.2v4.5 c-0.5-0.1-1-0.2-1.6-0.2c-3.4,0-5.8,2.6-6.5,6.2c-0.1,0.7-0.2,1.4-0.2,2.2V51h-4.8V32.8z"/><path fill="#FFFFFF" d="M173.5,12.3h4.8V51h-4.8V12.3z"/><path fill="#FFFFFF" d="M206.5,12.3v31.9c0,2.3,0.1,5,0.2,6.8h-4.3l-0.2-4.6H202c-1.5,2.9-4.7,5.2-9,5.2 c-6.4,0-11.3-5.4-11.3-13.4c-0.1-8.8,5.4-14.2,11.9-14.2c4,0,6.8,1.9,8,4h0.1V12.3H206.5z M201.7,35.4c0-0.6-0.1-1.4-0.2-2 c-0.7-3.1-3.3-5.6-6.9-5.6c-5,0-7.9,4.4-7.9,10.2c0,5.3,2.6,9.8,7.8,9.8c3.2,0,6.2-2.1,7.1-5.7c0.2-0.7,0.2-1.3,0.2-2.1V35.4z"/><path fill="#FFFFFF" d="M42.8,64c0.1,1.6-1.1,2.9-3.1,2.9c-1.7,0-2.9-1.3-2.9-2.9c0-1.7,1.3-3,3-3C41.7,61,42.8,62.3,42.8,64z M37.4,97.8V71.4h4.8v26.4H37.4z"/><path fill="#FFFFFF" d="M47.5,78.6c0-2.7-0.1-5-0.2-7.1h4.3l0.3,4.4h0.1c1.3-2.5,4.4-5,8.8-5c3.7,0,9.4,2.2,9.4,11.2v15.8h-4.8 V82.6c0-4.3-1.6-7.8-6.1-7.8c-3.2,0-5.6,2.2-6.5,4.9c-0.2,0.6-0.3,1.4-0.3,2.2v15.9h-4.8V78.6z"/><path fill="#FFFFFF" d="M84,61.6c2.9-0.4,6.3-0.8,10.1-0.8c6.8,0,11.7,1.6,14.9,4.6c3.3,3,5.2,7.3,5.2,13.2c0,6-1.9,10.9-5.3,14.3 c-3.4,3.4-9.1,5.3-16.3,5.3c-3.4,0-6.2-0.2-8.6-0.4V61.6z M88.8,94.1c1.2,0.2,3,0.3,4.8,0.3c10.2,0,15.7-5.7,15.7-15.6 c0.1-8.7-4.9-14.2-14.9-14.2c-2.5,0-4.3,0.2-5.6,0.5V94.1z"/><path fill="#FFFFFF" d="M132.1,97.8l-0.4-3.3h-0.2c-1.5,2.1-4.3,3.9-8.1,3.9c-5.4,0-8.1-3.8-8.1-7.6c0-6.4,5.7-9.9,15.9-9.8v-0.5 c0-2.2-0.6-6.1-6-6.1c-2.5,0-5,0.8-6.9,2l-1.1-3.2c2.2-1.4,5.4-2.3,8.7-2.3c8.1,0,10.1,5.5,10.1,10.8v9.9c0,2.3,0.1,4.5,0.4,6.3 H132.1z M131.4,84.4c-5.3-0.1-11.2,0.8-11.2,5.9c0,3.1,2.1,4.6,4.5,4.6c3.4,0,5.6-2.2,6.4-4.4c0.2-0.5,0.3-1,0.3-1.5V84.4z"/><path fill="#FFFFFF" d="M146.6,63.9v7.6h6.9v3.7h-6.9v14.2c0,3.3,0.9,5.1,3.6,5.1c1.3,0,2.2-0.2,2.8-0.3l0.2,3.6 c-0.9,0.4-2.4,0.7-4.3,0.7c-2.2,0-4-0.7-5.2-2c-1.4-1.4-1.9-3.8-1.9-6.9V75.1h-4.1v-3.7h4.1v-6.3L146.6,63.9z"/><path fill="#FFFFFF" d="M171.4,97.8l-0.4-3.3h-0.2c-1.5,2.1-4.3,3.9-8.1,3.9c-5.4,0-8.1-3.8-8.1-7.6c0-6.4,5.7-9.9,15.9-9.8v-0.5 c0-2.2-0.6-6.1-6-6.1c-2.5,0-5,0.8-6.9,2l-1.1-3.2c2.2-1.4,5.4-2.3,8.7-2.3c8.1,0,10.1,5.5,10.1,10.8v9.9c0,2.3,0.1,4.5,0.4,6.3 H171.4z M170.7,84.4c-5.3-0.1-11.2,0.8-11.2,5.9c0,3.1,2.1,4.6,4.5,4.6c3.4,0,5.6-2.2,6.4-4.4c0.2-0.5,0.3-1,0.3-1.5V84.4z"/></g></g></a></g><a href="https://ourworldindata.org/grapher/stratospheric-ozone-concentration-projections" target="_blank"><text font-size="25.20" x="15.0" y="35.2" fill="#555"><tspan x="15" y="35.160000000000004">Stratospheric ozone concentration projections</tspan></text></a><text font-size="14.40" x="15.0" y="53.7" fill="#666"><tspan x="15" y="53.72">Stratospheric ozone concentrations with projections to 2100 based on chemistry-climate models. Ozone</tspan><tspan x="15" y="69.56">concentrations are measured relative to levels in 1960 (1960 = 0), and measured as the global average, and regional</tspan><tspan x="15" y="85.4">average. Figures represent the mean across a number of model runs; model projections have notable uncertainty</tspan><tspan x="15" y="101.24000000000001">around such average trends.</tspan></text></g><g class="LineChart"><defs><clipPath id="boundsClip-72"><rect x="42.562" y="0" width="830" height="866.8"></rect></clipPath></defs><g class="AxisBoxView"><g class="HorizontalAxis"><text x="52.6" y="556.5" fill="#666" text-anchor="middle" font-size="16.2">1960</text><text x="151.8" y="556.5" fill="#666" text-anchor="middle" font-size="16.2">1980</text><text x="251.1" y="556.5" fill="#666" text-anchor="middle" font-size="16.2">2000</text><text x="350.3" y="556.5" fill="#666" text-anchor="middle" font-size="16.2">2020</text><text x="449.6" y="556.5" fill="#666" text-anchor="middle" font-size="16.2">2040</text><text x="548.8" y="556.5" fill="#666" text-anchor="middle" font-size="16.2">2060</text><text x="648.1" y="556.5" fill="#666" text-anchor="middle" font-size="16.2">2080</text><text x="747.4" y="556.5" fill="#666" text-anchor="middle" font-size="16.2">2100</text></g><g class="VerticalAxis"><text x="47.56" y="535.3" fill="#666" dominant-baseline="middle" text-anchor="end" font-size="16.2">-140</text><text x="47.56" y="489.5" fill="#666" dominant-baseline="middle" text-anchor="end" font-size="16.2">-120</text><text x="47.56" y="443.7" fill="#666" dominant-baseline="middle" text-anchor="end" font-size="16.2">-100</text><text x="47.56" y="397.9" fill="#666" dominant-baseline="middle" text-anchor="end" font-size="16.2">-80</text><text x="47.56" y="352.1" fill="#666" dominant-baseline="middle" text-anchor="end" font-size="16.2">-60</text><text x="47.56" y="306.3" fill="#666" dominant-baseline="middle" text-anchor="end" font-size="16.2">-40</text><text x="47.56" y="260.5" fill="#666" dominant-baseline="middle" text-anchor="end" font-size="16.2">-20</text><text x="47.56" y="214.7" fill="#666" dominant-baseline="middle" text-anchor="end" font-size="16.2">0</text><text x="47.56" y="168.9" fill="#666" dominant-baseline="middle" text-anchor="end" font-size="16.2">20</text><text x="47.56" y="123.1" fill="#666" dominant-baseline="middle" text-anchor="end" font-size="16.2">40</text></g><g class="AxisGridLines"><line x1="52.56" y1="535.3" x2="747.35" y2="535.3" stroke="#ddd" stroke-dasharray="3,2"></line><line x1="52.56" y1="489.5" x2="747.35" y2="489.5" stroke="#ddd" stroke-dasharray="3,2"></line><line x1="52.56" y1="443.7" x2="747.35" y2="443.7" stroke="#ddd" stroke-dasharray="3,2"></line><line x1="52.56" y1="397.9" x2="747.35" y2="397.9" stroke="#ddd" stroke-dasharray="3,2"></line><line x1="52.56" y1="352.1" x2="747.35" y2="352.1" stroke="#ddd" stroke-dasharray="3,2"></line><line x1="52.56" y1="306.3" x2="747.35" y2="306.3" stroke="#ddd" stroke-dasharray="3,2"></line><line x1="52.56" y1="260.5" x2="747.35" y2="260.5" stroke="#ddd" stroke-dasharray="3,2"></line><line x1="52.56" y1="214.7" x2="747.35" y2="214.7" stroke="#ccc"></line><line x1="52.56" y1="168.9" x2="747.35" y2="168.9" stroke="#ddd" stroke-dasharray="3,2"></line><line x1="52.56" y1="123.1" x2="747.35" y2="123.1" stroke="#ddd" stroke-dasharray="3,2"></line></g></g><g clip-path="url(#boundsClip-72)"><g class="HeightedLegend clickable"><g class="legendMark"><rect x="747.35" y="122.35" width="68.75" height="13.5" fill="#fff" opacity="0"></rect><text font-size="13.50" x="752.4" y="133.2" fill="#34983f"><tspan x="752.35" y="133.15">Arctic</tspan></text></g><g class="legendMark"><rect x="747.35" y="195.85" width="74.15" height="13.5" fill="#fff" opacity="0"></rect><text font-size="13.50" x="752.4" y="206.7" fill="#ca2628"><tspan x="752.35" y="206.65">Global</tspan></text></g><g class="legendMark"><rect x="747.35" y="220.55" width="87.65" height="13.5" fill="#fff" opacity="0"></rect><text font-size="13.50" x="752.4" y="231.4" fill="#3360a9"><tspan x="752.35" y="231.35000000000002">Antarctic</tspan></text></g></g><g class="Lines"><rect x="53" y="123" width="695" height="412" fill="rgba(255,255,255,0)" opacity="0"></rect><g class="key-Antarctic_0"><path stroke="#3360a9" stroke-linecap="round" d="M53 215L77 217L102 232L127 263L152 310L177 367L201 423L226 467L251 492L276 497L301 485L326 463L350 439L375 417L400 398L425 380L450 362L474 343L499 325L524 308L549 294L574 283L599 274L623 265L648 257L673 250L698 242L723 235L747 227" fill="none" stroke-width="1.5"></path><g fill="#3360a9"><circle cx="53" cy="215" r="2"></circle><circle cx="77" cy="217" r="2"></circle><circle cx="102" cy="232" r="2"></circle><circle cx="127" cy="263" r="2"></circle><circle cx="152" cy="310" r="2"></circle><circle cx="177" cy="367" r="2"></circle><circle cx="201" cy="423" r="2"></circle><circle cx="226" cy="467" r="2"></circle><circle cx="251" cy="492" r="2"></circle><circle cx="276" cy="497" r="2"></circle><circle cx="301" cy="485" r="2"></circle><circle cx="326" cy="463" r="2"></circle><circle cx="350" cy="439" r="2"></circle><circle cx="375" cy="417" r="2"></circle><circle cx="400" cy="398" r="2"></circle><circle cx="425" cy="380" r="2"></circle><circle cx="450" cy="362" r="2"></circle><circle cx="474" cy="343" r="2"></circle><circle cx="499" cy="325" r="2"></circle><circle cx="524" cy="308" r="2"></circle><circle cx="549" cy="294" r="2"></circle><circle cx="574" cy="283" r="2"></circle><circle cx="599" cy="274" r="2"></circle><circle cx="623" cy="265" r="2"></circle><circle cx="648" cy="257" r="2"></circle><circle cx="673" cy="250" r="2"></circle><circle cx="698" cy="242" r="2"></circle><circle cx="723" cy="235" r="2"></circle><circle cx="747" cy="227" r="2"></circle></g></g><g class="key-Arctic_0"><path stroke="#34983f" stroke-linecap="round" d="M53 215L77 205L102 208L127 216L152 228L177 243L201 258L226 271L251 277L276 277L301 269L326 258L350 244L375 229L400 219L425 209L450 201L474 193L499 185L524 178L549 170L574 164L599 158L623 152L648 146L673 140L698 136L723 133L747 129" fill="none" stroke-width="1.5"></path><g fill="#34983f"><circle cx="53" cy="215" r="2"></circle><circle cx="77" cy="205" r="2"></circle><circle cx="102" cy="208" r="2"></circle><circle cx="127" cy="216" r="2"></circle><circle cx="152" cy="228" r="2"></circle><circle cx="177" cy="243" r="2"></circle><circle cx="201" cy="258" r="2"></circle><circle cx="226" cy="271" r="2"></circle><circle cx="251" cy="277" r="2"></circle><circle cx="276" cy="277" r="2"></circle><circle cx="301" cy="269" r="2"></circle><circle cx="326" cy="258" r="2"></circle><circle cx="350" cy="244" r="2"></circle><circle cx="375" cy="229" r="2"></circle><circle cx="400" cy="219" r="2"></circle><circle cx="425" cy="209" r="2"></circle><circle cx="450" cy="201" r="2"></circle><circle cx="474" cy="193" r="2"></circle><circle cx="499" cy="185" r="2"></circle><circle cx="524" cy="178" r="2"></circle><circle cx="549" cy="170" r="2"></circle><circle cx="574" cy="164" r="2"></circle><circle cx="599" cy="158" r="2"></circle><circle cx="623" cy="152" r="2"></circle><circle cx="648" cy="146" r="2"></circle><circle cx="673" cy="140" r="2"></circle><circle cx="698" cy="136" r="2"></circle><circle cx="723" cy="133" r="2"></circle><circle cx="747" cy="129" r="2"></circle></g></g><g class="key-Global_0"><path stroke="#ca2628" stroke-linecap="round" d="M53 215L77 214L102 215L127 220L152 225L177 234L201 242L226 247L251 250L276 248L301 245L326 240L350 235L375 231L400 226L425 224L450 220L474 217L499 214L524 211L549 210L574 208L599 208L623 206L648 204L673 204L698 203L723 203L747 203" fill="none" stroke-width="1.5"></path><g fill="#ca2628"><circle cx="53" cy="215" r="2"></circle><circle cx="77" cy="214" r="2"></circle><circle cx="102" cy="215" r="2"></circle><circle cx="127" cy="220" r="2"></circle><circle cx="152" cy="225" r="2"></circle><circle cx="177" cy="234" r="2"></circle><circle cx="201" cy="242" r="2"></circle><circle cx="226" cy="247" r="2"></circle><circle cx="251" cy="250" r="2"></circle><circle cx="276" cy="248" r="2"></circle><circle cx="301" cy="245" r="2"></circle><circle cx="326" cy="240" r="2"></circle><circle cx="350" cy="235" r="2"></circle><circle cx="375" cy="231" r="2"></circle><circle cx="400" cy="226" r="2"></circle><circle cx="425" cy="224" r="2"></circle><circle cx="450" cy="220" r="2"></circle><circle cx="474" cy="217" r="2"></circle><circle cx="499" cy="214" r="2"></circle><circle cx="524" cy="211" r="2"></circle><circle cx="549" cy="210" r="2"></circle><circle cx="574" cy="208" r="2"></circle><circle cx="599" cy="208" r="2"></circle><circle cx="623" cy="206" r="2"></circle><circle cx="648" cy="204" r="2"></circle><circle cx="673" cy="204" r="2"></circle><circle cx="698" cy="203" r="2"></circle><circle cx="723" cy="203" r="2"></circle><circle cx="747" cy="203" r="2"></circle></g></g></g></g></g><g style="fill: #777;" class="SourcesFooter"><g style="fill: #777;" class="clickable"><text font-size="12.60" x="15.0" y="581.6"><tspan x="15" y="581.58">Source: Hegglin et al. (2014).  Twenty questions and answers about the ozone layer: 2014 update.</tspan></text></g><text font-size="12.60" x="775.4" y="581.6"><tspan x="775.402" y="581.58"><a style="fill: #777;" class="cclogo" href="http://creativecommons.org/licenses/by-sa/4.0/deed.en_US" target="_blank">CC BY-SA</a></tspan></text></g></g></svg>
